X:3006
T:Jerry's Beaver Hat
O:england
R:double jig
M:6/8
L:1/8
K:D
D|DFA d2e|fdB BAF|ABA AFD|EFE GFE|
DFA d2e|fdB BAF|ABA dAF|DED D2:|
d|dfa afd|gbg faf|dfa afd|cee ecA|
dfa afd|gbg faf|BdB AFA|DED D2:|


